X:1
T:Blessèd Bible
T:J. Howard Entwisle
T:Blessèd Bible
T:Public Domain
T:Public Domain
T:Public Domain
C:J. Howard Entwisle
Z:Public Domain
%%score ( 1 2 ) ( 3 4 )
L:1/8
M:9/8
K:Bb
V:1 treble 
V:2 treble 
V:3 bass 
V:4 bass 
V:1
 [Fd]2 [Ge] | [Fd]3- [Fd]2 [Ec] [Fd]2 [Ec] | [D-c]3 [DF]3 ([DF][EG])[B,D] | %3
w: 1.~Bless- èd|Bi- * ble, Book of|Gold, * Pre- * cious|
w: 2.~Lamp of|faith, * my feet to|lead, * Bread * of|
w: 3.~Word of|God, * thy love im-|part, * Fire * my|
 [A,E]3- [A,E]2 [A,E] (EF)[A,C] | [B,D]3- [B,D]3 (FB)[Dc] | ([Fd]3- [Fd][=E^c])[Fd] [_Af]2 [G=e] | %6
w: truths * thy pag- * es|Truths * to * lead|day * * by day All|
w: heav’n, * my soul * to|Liv- * ing * wa-|pure * * and free, Book|
w: zeal, * and cleanse * my|Keep * me * ear-|keep * * me true, Ev-|
 ([Ge]3 [Fd]3) ([Fd][Ec])[DB] | [=Ec]3 [_E_c]2 [EG] [EA]2 [EF] | (D2- E) [DB]3 || %9
w: a- * long * my|pil- grim way. * *||
w: of * books * thou|art to me. Bless- èd|Bi- * *|
w: ’ry * day * my|strength re- new. * *||
"^Refrain" [Fd]2 [_Ad] | [G-e]3 [Ge]2 [EG] [GB]2 [_Gc] | [Fd]3- [Fd]3 ([Fd][Ge])[Fd] | %12
w: |||
w: pure and|true, * Guide me all|my * jour- * ney|
w: |||
 [Fc]3- [Fc]2 [Fc] [=Ed]2 [Ec] | [Fc]3- [Fc]3 [Ff]2 [Fe] | [Fd]3- [Fd]2 [EB] (BF)[D_A] | %15
w: |||
w: through; * Heav’n- ly light|with- * in me|shine, * Help me * make|
w: |||
 [EG]3- [EG]3 [=Ec]2 [EB] | [FA]3- [FA]2 [Fe] [Fd]2 [Ec] | [DB]3- [DB]3 |] %18
w: |||
w: pre- * cepts mine!|||
w: |||
V:2
 x3 | x9 | x9 | x6 A,2 x | x6 D2 x | x9 | x9 | x9 | B3- x3 || x3 | x9 | x9 | x9 | x9 | x6 D2 x | %15
w: |||hold,|me|||||||||||
w: |||feed;|ters||||ble,||||||thy|
w: |||heart;|nest,|||||||||||
 x9 | x9 | x6 |] %18
w: |||
w: |||
w: |||
V:3
 z2 z | [B,,B,]2 [D,B,] [F,A,]3 [F,A,]3 | [B,,B,]2 [B,,B,] [B,,B,]3 z2 z | [C,F,]2 [C,F,] F,3 F,3 | %4
w: |Bless- èd Bi- ble,|Book of Gold,|Pre- cious truths thy|
 [B,,F,]2 [B,,F,] [B,,F,]3 z2 z | [B,,B,]2 [B,,B,] [B,,B,]3 (D,2 E,) | B,2 B, B,3 z2 z | %7
w: hold, Truths to|lead me day by *|All a- long|
 [C,B,]2 [C,B,] [F,A,]3 [F,A,]3 | [B,,B,]2 [B,,G,] [B,,F,]3 || z2 z | %10
w: way. Bless- èd Bi-|ble, pure and||
 [E,B,]2 [E,B,] [E,B,]3 [E,B,]3 | [B,,B,]2 [B,,B,] [B,,B,]3 z2 z | [C,A,]2 [C,A,] [C,A,]3 [C,B,]3 | %13
w: true, Guide me all|my jour- ney|through; Heav’n- ly light|
 [F,A,]2 [F,A,] [F,A,]3 [F,D]2 [F,C] | [B,,B,]2 [B,,B,] [B,,B,]3 [B,,B,]3 | %15
w: with- in me shine, help|me make thy pre-|
 ([E,B,]2 [E,B,] [E,B,]3 [C,B,]2) [C,C] | [F,C]2 [F,C] [F,C]2 [F,C] [F,B,]2 F, | %17
w: cepts * * * mine,|pre- cepts mine! * * *|
 [B,,F,]2 [B,,F,] [B,,F,]3 |] %18
w: |
V:4
 x3 | x9 | x9 | x3 F,3 F,3 | x9 | x6 B,3 | B,2 B, B,3 x3 | x9 | x6 || x3 | x9 | x9 | x9 | x9 | x9 | %15
w: |||pag- es||day,|my pil- grim|||||||||
 x9 | x8 F, | x6 |] %18
w: |||

